X: 1658
T: Lamplighter Schottische
B: australian traditional tunes wiki
M:4/4
L:1/8
R: Schottische
Q: 1/4=100
K:G
V:1 
|:"G"b2b2g2g2|d>e d>B G>B e<d|"C"c>B c>A "D7"F>A c>e|"G"d>e d>B G>B d>g|
b4g2g2|d>e d>B G>B e<d|"C"c>B c>A "D7"F>A B>A|"G"G2G2G4:|
|:"G"[G,2D2]B,>DG2D2|(3BdB G>Bd4|"C"(3gfe "D"d>cA2F2|"C"(3gfe d>B"G"G4|
[G,2D2]B,>DG2D2|[D2B2]G>Bd4|"C"(3gfe d>c "D"A>F B>A|"G"G2G2G4:|
% abcbook-tune_id 6342d53a4a940bd4692fdc21


% abcbook-boost 0
% abcbook-tablature 
% abcbook-transpose 
% abcbook-lastupdated 1665324376536
% abcbook-soundfonts 
% abcbook-repeats 1
% NFF Book 2008

